X:1
T:Title
%%score { ( 1 3 ) | ( 2 4 ) }
L:1/8
M:4/4
K:C
V:1 treble nm="Grand Piano"
V:3 treble 
V:2 bass 
V:4 bass 
V:1
 z4 z2[Q:1/4=106] [CE]2 | [EG]3 [EG] [FA][EG] C>D | E6 [EG]2 | [FA]3 [GB] [Ac]2 [FA]2 | %4
[M:3/4] [EG]6 |[M:1/4] [CE]2 |[M:4/4] [DF]3 [^CE] [DF][FA] [EG]>[DF] | [CE]6 [Ec]2 | B3 A G2 ^F2 | %9
[M:3/4] G6 |[M:1/4] G2 |[M:4/4] d3 B A2 G2 | c6 z2 | d3 [GB] [Gc]2 [Gd]2 |[M:3/4] [Ge]6 | %15
[M:1/4] [Ed]2 |[M:4/4] c3 d c2 AA | [EG]3 [FA] [EG]2 [Gc]2 | [Fd]3 [Fd] c2 [DB]2 |[M:3/4] [Ec]6 |] %20
V:2
 z4 z2 [C,G,]2 | [C,C]3 [C,C] [C,C][C,C] [E,G,]>[G,B,] | [C,G,C]6 [C,C]2 | %3
 [F,C]3 [F,C] [F,C]2 [F,C]2 |[M:3/4] [C,C]6 |[M:1/4] [C,G,]2 | %6
[M:4/4] [G,,G,]3 [G,,G,] [G,,G,][G,,G,] [A,,G,]>[B,,G,] | [C,G,]6 [C,G,]2 | %8
 [D,G,D]3 [D,CD] [D,B,D]2 [D,A,D]2 |[M:3/4] [G,B,D]6 |[M:1/4] G,2 | %11
[M:4/4][K:treble] [G,B,F]3 [G,DF] [G,CF]2 [G,B,F]2 | z2 A,2 G,2 G,2 | %13
 [G,B,G]3 [F,D] [E,C]2 [D,B,]2 |[M:3/4] [C,C]6 |[M:1/4] [C,_B,]2 | %16
[M:4/4] [F,A,F]3 [F,^G,F] [F,A,F]2 [F,CF][F,CF] | [C,C]3 [C,C] [C,C]2 [E,C]2 | %18
 [F,A,]3 [D,A,] [G,E]2 [G,,G,]2 |[M:3/4] [C,G,]6 |] %20
V:3
 x8 | x8 | x8 | x8 |[M:3/4] x6 |[M:1/4] x2 |[M:4/4] x8 | x8 | x8 |[M:3/4] x6 |[M:1/4] x2 | %11
[M:4/4] x8 | [CE]2 F2 E2 G2 | x8 |[M:3/4] x6 |[M:1/4] x2 |[M:4/4] x8 | x8 | x8 |[M:3/4] x6 |] %20
V:4
 x8 | x8 | x8 | x8 |[M:3/4] x6 |[M:1/4] x2 |[M:4/4] x8 | x8 | x8 |[M:3/4] x6 |[M:1/4] x2 | %11
[M:4/4][K:treble] x8 | C,6 z2 | x8 |[M:3/4] x6 |[M:1/4] x2 |[M:4/4] x8 | x8 | x8 |[M:3/4] x6 |] %20

